X:1
T:Title
%%score { ( 1 3 ) | ( 2 4 ) }
L:1/8
Q:1/4=106
M:4/4
K:C
V:1 treble nm="Grand Piano"
V:3 treble 
V:2 bass 
V:4 bass 
V:1
 G>G A>G E>D C>E | G2 c2 G2 c>d |[M:3/4] e6 |[M:1/4] d>d |[M:4/4] c6 z2 | G>G A>G E>D C>E | %6
w: L.~O.~Brown * * * * * * *||||||
[M:3/4] G2 c2 G2 |[M:1/4] c>d |[M:4/4] e6 z2 |[M:3/4] c6 |[M:1/4] E>F |[M:4/4] G6 z2 | A6 z2 | %13
w: |||||||
 G>A B>c [^Fd]2 [Fd]>[Fe] | d6 z2 | G6 z2 | A6 z2 | G>A B>c d2 A>B | c8 |] %19
w: ||||||
V:2
 G,>G, A,>G, E,>D, C,>E, | G,2 C2 G,2 z2 |[M:3/4] z2 [G,C]>[G,C] [G,C]2 |[M:1/4] z2 | %4
[M:4/4] z2 [C,G,]>[C,G,] [C,G,]2 z2 | G,>G, A,>G, E,>D, C,>E, |[M:3/4] G,2 C2 G,2 |[M:1/4] z2 | %8
[M:4/4] z2 [G,C]>[G,C] [G,C]2 z2 |[M:3/4] z2 [C,G,]>[C,G,] [C,G,]2 |[M:1/4] z2 | %11
[M:4/4] z2 [C,C]>[C,C] [C,C]2 z2 | z2 [F,C]>[F,C] [F,C]2 [F,DF]>[F,CF] | %13
 [G,B,D]>[G,CG] [G,DG]>[G,EG][K:bass] [D,D]2 [D,C]>[D,C] | [B,G]2 z2 z4 | %15
 z2[K:bass] [C,C]>[C,C] [C,C]2 z2 | z2 [F,C]>[F,C] [F,C]2 [F,DF]>[F,CF] | %17
 [G,B,D]>[G,CG] [G,DG]>[G,EG] [G,FG]2 [G,DF]>[G,DF] | z2 A,>A, G,4 |] %19
V:3
 x8 | x8 |[M:3/4] z2 G>G G2 |[M:1/4] x2 |[M:4/4] z2 E>E E2 z2 | x8 |[M:3/4] x6 |[M:1/4] x2 | %8
[M:4/4] z2 G>G G2 d>d |[M:3/4] z2 E>E E2 |[M:1/4] x2 |[M:4/4] z2 E>E E2 c>G | z2 F>F F2 B>A | x8 | %14
 z2 G>G G2 E>F | z2 E>E E2 c>G | z2 F>F F2 B>A | x8 | [CE]2 F>F E4 |] %19
V:4
 x8 | x8 |[M:3/4] x6 |[M:1/4] x2 |[M:4/4] x8 | x8 |[M:3/4] x6 |[M:1/4] x2 |[M:4/4] x8 |[M:3/4] x6 | %10
[M:1/4] x2 |[M:4/4] x8 | x8 | x4[K:bass] x4 | G,2- [G,-B,]>[G,-B,] [G,B,]2 z2 | x2[K:bass] x6 | %16
 x8 | x8 | C,8 |] %19

